X: 42832
T: Widow Cantwell's Fancy, The
R: hornpipe
M: 4/4
K: Gmajor
f g/f/e|:dB GG GB dB|(3ABG (3FGE Dc BA|GF GG GB dB|BA AA Af g/f/e|
dB GG GB dB|(3ABG (3FGE Dc BA|GB dg ec AF|1 G2 G2 Gf g/f/e:|2 G2 G2 G2 Bc||
|:dg (3gag dg (3gag|dg (3gag ed cB|Aa (3bag fe dc|Bd (3def gf g/f/e|
dB GG GB dB|(3ABG (3FGE Dc BA|GB dg ec AF|1 G2 G2 G2 Bc:|2 G2 G2 G4||

